X:1
T:Easter Offerings
T:Easter Offerings
T:Henry Waterman Fairbank
T:A. M. Goodman, 1883
T:Public Domain Courtesy of the Cyber Hymnal™
T:Public Domain Courtesy of the Cyber Hymnal™
C:Henry Waterman Fairbank
Z:Public Domain
Z:Courtesy of the Cyber Hymnal™
%%score ( 1 2 ) ( 3 4 )
L:1/8
Q:1/4=102
M:3/4
K:Bb
V:1 treble 
V:2 treble 
V:3 bass 
V:4 bass 
V:1
 [DF]2 [DF] [DFG]2 [DFB] | [EA]2 [Fe] [Fe]3 | [EG]2 [EG] [EA]2 [EG] | [DF]2 [Fd] [Fd]3 | %4
w: 1.~Eas- ter of- ferings|we would bring|To the Lord, our|ris- en king;|
w: 2.~Eas- ter of- ferings|we would bring|To the Lord, our|ris- en king;|
w: 3.~Eas- ter of- ferings|we would bring|To the Lord, our|ris- en king;|
 [Dd]2 [Dd] (d c)[_EG] | [FA]2 [Fd] [Fc]3 | [Cc]2 [Dc] (c B)[_EG] | (FA) [=EG] F3 | %8
w: Ros- es rare, * and|lil- ies sweet,|We will lay * at|Je- * sus’ feet.|
w: Bring- ing from * our|trea- sured hoard,|Gold and sil- * ver|to * the Lord.|
w: Un- to Him * who|once was slain|Our e- ter- * nal|life * to gain.|
 [Fe]2 [Fe] (e d)[Ec] | (dB) [^CG] [DF]3 | [Fe]2 [Fe] (e d)[Fc] | (dc) [FB] [Fc]3 | %12
w: It is by * His|word * of power|Beau- ty clothes * each|bud * and flower;|
w: He has crowned * our|lives * with good,|Shel- ter, rai- * ment,|dai- * ly food,|
w: Won- drous love! * His|life * to give!|For His glo- * ry|may * we live,|
 [Fd]2 [Fd] [FG]2 [=EG] | [Ec]2 [Ec] [EF]3 | [DF]2 [DF] [DFG]2 [FB] | [Ec]2 [Fd] [DB]3 || %16
w: Choic- est blos- soms|we will bring|As an of- fering|to our king.|
w: Of His boun- ty|let us bring|Wor- thy of- fering|to our king.|
w: And our hearts to|Je- sus bring|As an of- fering|to our king.|
[M:4/4]"^Refrain" [DB][Ec] | [Fd]4 [DB]2 [FA][FB] | [Gc]4 [EG]2 [Gc][Gd] | %19
w: |||
w: Bring an|of- fering, Eas- ter|of- fering, Gifts of|
w: |||
 [Ge]2 [Ge]2 [Fd]2 [Fc]2 | [Fd]6 [DB][Ec] | [Fd]4 [DB]2 [FA][FB] | [Gc]4 !fermata![Ge]2 [Ge][Ge] | %23
w: ||||
w: love to Je- sus|bring As an|of- fering, Eas- ter|of- fering To the|
w: ||||
 [Fd]2 [DB]2 [Ec]3 [Fd] | [DB]6 |] %25
w: ||
w: Lord, our ris- en|king.|
w: ||
V:2
 x6 | x6 | x6 | x6 | x3 =E2 x | x6 | x3 =E2 x | F2 F3 x | x3 F2 x | D2 x4 | x3 F2 x | F2 x4 | x6 | %13
 x6 | x6 | x6 ||[M:4/4] x2 | x8 | x8 | x8 | x8 | x8 | x8 | x8 | x6 |] %25
V:3
 [B,,F,]2 [B,,F,] [B,,G,]2 [B,,F,] | [C,F,]2 [F,A,] [F,A,]3 | [F,B,]2 [F,B,] [F,C]2 [F,A,] | %3
 B,2 [B,D] [B,D]3 | [G,B,]2 [G,B,] [C,B,]2 [C,C] | [F,C]2 [F,B,] [F,A,]3 | %6
 [C,=E,G,]2 [C,F,A,] [C,G,B,]2 [C,B,] | (A,C) [C,B,] [F,A,]3 | [A,C]2 [A,C] [F,A,]2 [F,A,] | %9
 [B,,F,]2 [B,,=E,] [B,,F,]3 | [A,C]2 [A,C] [F,A,]2 [F,A,] | B,2 [D,B,] [F,A,]3 | %12
 [=B,,G,]2 [B,,G,] [C,G,]2 [C,G,] | [B,,G,]2 [B,,G,] [A,,C]3 | [B,,B,]2 [B,,B,] [B,D]2 [B,D] | %15
 [F,A,]2 [F,A,] [B,,B,]3 ||[M:4/4] B,B, | B,4 B,2 [D,B,][D,B,] | [E,B,]4 [E,B,]2 [E,B,][D,=B,] | %19
 [C,C]2 [C,G,]2 [F,A,]2 [F,A,]2 | [B,,B,]6 B,B, | B,4 B,2 [D,B,][D,B,] | %22
 [E,B,]4 !fermata![C,C]2 [E,B,][E,B,] | [F,B,]2 [F,B,]2 [F,A,]3 F, | [B,,F,]6 |] %25
V:4
 x6 | x6 | x6 | B,2 x4 | x6 | x6 | x6 | F,2 x4 | x6 | x6 | x6 | B,2 x4 | x6 | x6 | x6 | x6 || %16
[M:4/4] B,B, | B,4 B,2 x2 | x8 | x8 | x6 B,B, | B,4 B,2 x2 | x8 | x7 F, | x6 |] %25

